dist/images/icons/soc-4.svg

<svg width="16" height="12" viewBox="0 0 16 12" fill="none" xmlns="http://www.w3.org/2000/svg">
<path d="M9.33716 7.80291C8.93909 8.06828 8.47672 8.20857 8 8.20857C7.52331 8.20857 7.06094 8.06828 6.66288 7.80291L0.106531 3.43188C0.0703376 3.40768 0.0348139 3.38249 0 3.35635L0 10.5188C0 11.3399 0.666406 11.9917 1.47291 11.9917H14.5271C15.3482 11.9917 16 11.3253 16 10.5188V3.35632C15.9651 3.38253 15.9295 3.40777 15.8932 3.432L9.33716 7.80291Z" fill="#2B2A29"/>
<path d="M0.626563 2.65182L7.18291 7.02288C7.43109 7.18835 7.71553 7.27107 7.99997 7.27107C8.28444 7.27107 8.56891 7.18832 8.81709 7.02288L15.3734 2.65182C15.7658 2.39041 16 1.95291 16 1.48072C16 0.668816 15.3395 0.00831604 14.5276 0.00831604H1.47241C0.660532 0.00834729 7.75033e-07 0.668847 7.75033e-07 1.4815C-0.000242619 1.71313 0.0568447 1.94122 0.166171 2.14542C0.275497 2.34962 0.433664 2.52359 0.626563 2.65182Z" fill="#2B2A29"/>
</svg>

<svg width="16" height="12" fill="none" xmlns="http://www.w3.org/2000/svg"><path d="M9.337 7.803a2.403 2.403 0 01-2.674 0L.107 3.432A2.388 2.388 0 010 3.356v7.163c0 .82.666 1.473 1.473 1.473h13.054c.821 0 1.473-.667 1.473-1.473V3.356c-.035.027-.07.052-.107.076l-6.556 4.37z" fill="#2B2A29"/><path d="M.627 2.652l6.556 4.37a1.47 1.47 0 001.634 0l6.556-4.37c.393-.262.627-.7.627-1.171 0-.812-.66-1.473-1.472-1.473H1.472C.661.008 0 .668 0 1.482a1.403 1.403 0 00.627 1.17z" fill="#2B2A29"/></svg>
